actions/22/special_paste.svg

<svg xmlns="http://www.w3.org/2000/svg" viewBox="0 0 22 22">
  <defs id="defs3051">
<style type="text/css" id="current-color-scheme">.ColorScheme-Text {color:#fcfcfc;}</style>
  </defs>
 <path 
     style="fill:currentColor;fill-opacity:1;stroke:none" 
	 d="M 7,3 V 5 H 6 c 0,0 -2,0 -2,2 0,2 0,6 0,9 0,3 3,3 3,3 h 6 V 18 H 7 C 7,18 5,18 5,16 5,14 5,8 5,7 5,6 6,6 6,6 V 8 H 16 V 6 c 0,0 1,0 1,1 0,1 0,6 0,6 h 1 C 18,13 18,9 18,7 18,5 16,5 16,5 H 15 V 3 Z m 0,6 v 1 h 8 V 9 Z m 0,3 v 1 h 6 v -1 z m 9,1 -0.574219,1.613281 -1.546875,-0.734375 0.734375,1.546875 L 13,16 14.613281,16.574219 13.878906,18.121094 15.425781,17.386719 16,19 16.574219,17.386719 18.121094,18.121094 17.386719,16.574219 19,16 l -1.613281,-0.574219 0.734375,-1.546875 -1.546875,0.734375 z m -9,2 v 1 h 3 v -1 z"
	 class="ColorScheme-Text"
     />
</svg>

<svg xmlns="http://www.w3.org/2000/svg" viewBox="0 0 22 22">
  <defs id="defs3051">
    <style type="text/css" id="current-color-scheme">
      .ColorScheme-Text {
        color:#eff0f1;
      }
      </style>
  </defs>
 <path 
     style="fill:currentColor;fill-opacity:1;stroke:none" 
	 d="M 7 3 L 7 5 L 5 5 L 4 5 L 4 19 L 5 19 L 13 19 L 13 18 L 5 18 L 5 6 L 6 6 L 6 8 L 16 8 L 16 6 L 17 6 L 17 13 L 18 13 L 18 5 L 17 5 L 15 5 L 15 3 L 7 3 z M 7 9 L 7 10 L 15 10 L 15 9 L 7 9 z M 7 12 L 7 13 L 13 13 L 13 12 L 7 12 z M 16 13 L 15.425781 14.613281 L 13.878906 13.878906 L 14.613281 15.425781 L 13 16 L 14.613281 16.574219 L 13.878906 18.121094 L 15.425781 17.386719 L 16 19 L 16.574219 17.386719 L 18.121094 18.121094 L 17.386719 16.574219 L 19 16 L 17.386719 15.425781 L 18.121094 13.878906 L 16.574219 14.613281 L 16 13 z M 7 15 L 7 16 L 10 16 L 10 15 L 7 15 z "
	 class="ColorScheme-Text"
     />
</svg>
